build/img/sprite.svg

<?xml version="1.0" encoding="utf-8"?><svg xmlns="http://www.w3.org/2000/svg" xmlns:xlink="http://www.w3.org/1999/xlink"><symbol viewBox="0 0 27 35" id="icon-copyright" xmlns="http://www.w3.org/2000/svg"><g clip-path="url(#aclip0_92905_458)"><path d="M13.6426 0.515754L13.5 0.5L0 1.90733V26.5129L13.5 34.5L27 26.5129V1.90733L13.6426 0.515754ZM25.2344 25.5151L13.5 32.4573L1.76561 25.5151V15.4293L13.4507 22.3451L13.4701 23.5984L5.45351 18.8548L5.44295 20.0801L13.4894 24.8885L13.5088 26.175L5.46408 21.4174L5.45351 22.6427L13.5 27.4511L21.6239 22.6182V21.3929V17.409L25.2432 15.2595L25.2344 25.5151ZM25.2344 13.9519L22.0147 15.8319L20.5325 16.7071L13.4666 12.5201L13.456 13.7454L19.4957 17.318L19.4429 17.3495L19.3126 17.4247L18.4536 17.9166L13.4666 14.9689L13.456 16.1942L17.3921 18.5222L16.4591 19.1314L16.438 19.1436L13.4666 17.402L13.456 18.6273L15.4029 19.7615L13.4155 20.9483L1.7973 14.0762L13.4349 7.11831L25.2344 13.9519ZM25.2344 12.7266L13.4401 5.81075L1.76561 12.7196V3.4897L13.5 2.26442L25.2344 3.4897V12.7266Z"/></g><defs><clipPath id="aclip0_92905_458"><rect transform="translate(0 0.5)"/></clipPath></defs></symbol><symbol viewBox="0 0 143 27" id="icon-footer--logo" xmlns="http://www.w3.org/2000/svg"><g clip-path="url(#bclip0_92905_445)"><path d="M1.78783 24.4381C0.522508 22.6066 -0.105608 20.4106 2.82917e-05 18.1878V8.92382C-0.1532 6.67709 0.435585 4.44218 1.67609 2.56183C2.9052 1.11085 4.80474 0.441162 7.59818 0.441162C10.3916 0.441162 12.1794 1.11085 13.2968 2.3386C14.5099 3.89364 15.1066 5.84078 14.9728 7.80768V10.04H9.49771V7.47284C9.54193 6.71359 9.42778 5.95344 9.1625 5.24056C9.0207 4.95281 8.79596 4.71401 8.51719 4.55488C8.23841 4.39576 7.91835 4.32359 7.59818 4.34765C6.81601 4.34765 6.25733 4.57088 6.03385 5.12894C5.78108 5.92199 5.66766 6.75276 5.69864 7.58445V19.5271C5.63963 20.334 5.79375 21.1423 6.14559 21.871C6.36906 22.4291 6.92775 22.6523 7.70991 22.6523C8.49208 22.6523 8.93903 22.4291 9.1625 21.871C9.41655 21.1167 9.53016 20.3223 9.49771 19.5271V16.8484H14.9728V19.0807C15.0865 21.0797 14.4932 23.055 13.2968 24.6614C12.1794 26.0007 10.2799 26.6704 7.59818 26.6704C4.91648 26.5588 2.9052 25.8891 1.78783 24.4381Z"/><path d="M21.5653 0.775879H27.9344L32.6273 26.2238H27.4874L26.5935 20.8664H22.9062L22.0123 26.2238H16.7606L21.5653 0.775879ZM26.1466 17.518L24.8057 7.58433L23.4649 17.518H26.1466Z"/><path d="M36.5381 5.01721H32.739V0.775879H46.0358V4.90559H42.2367V26.2238H36.5381V5.01721Z"/><path d="M56.2039 0.775879H66.0368V3.45461H59.6678V11.8257H64.8077V14.3928H59.6678V23.7683H66.0368V26.3355H56.0922V0.775879H56.2039Z"/><path d="M68.942 0.775879H71.4002L78.6632 17.6296V0.775879H81.5684V26.2238H79.3336L71.9589 8.81208V26.2238H68.942V0.775879Z"/><path d="M84.9204 0.775879H94.7533V3.45461H88.3843V11.8257H93.5242V14.3928H88.3843V23.7683H94.7533V26.3355H84.9204V0.775879Z"/><path d="M97.6585 0.775874H102.798C104.82 0.636359 106.83 1.18735 108.497 2.33847C109.726 3.34299 110.285 5.12882 110.285 7.47271C110.285 10.7095 109.279 12.7186 107.156 13.3882L110.732 26.1122H107.268L103.916 14.1695H101.122V26.1122H97.5468V0.775874H97.6585ZM102.575 11.714C103.727 11.8089 104.875 11.4925 105.815 10.8211C106.486 10.2631 106.821 9.14691 106.821 7.47271C106.852 6.64101 106.739 5.81024 106.486 5.0172C106.234 4.44814 105.802 3.9775 105.257 3.67784C104.487 3.32753 103.642 3.1741 102.798 3.23138H101.234V11.6024H102.575V11.714Z"/><path d="M114.754 24.3264C113.593 22.3749 113.048 20.1188 113.19 17.8528V9.37017C113.162 7.75271 113.35 6.13877 113.749 4.57078C114.123 3.39907 114.868 2.38056 115.872 1.66882C117.119 0.931132 118.559 0.581418 120.006 0.66429C122.353 0.66429 124.029 1.22236 125.034 2.45011C126.191 4.07129 126.744 6.04529 126.599 8.03081V8.92372H123.246V8.14242C123.251 7.20765 123.177 6.27415 123.023 5.35207C122.929 4.76939 122.607 4.24769 122.129 3.90109C121.501 3.48931 120.756 3.29338 120.006 3.34302C119.205 3.29174 118.412 3.52938 117.771 4.01271C117.508 4.23394 117.294 4.50644 117.14 4.81351C116.986 5.12058 116.897 5.45577 116.877 5.79853C116.73 6.79634 116.655 7.80351 116.654 8.81211V18.2993C116.572 19.7447 116.8 21.1909 117.324 22.5406C117.771 23.4335 118.665 23.7684 120.006 23.7684C120.535 23.8343 121.073 23.7423 121.55 23.5039C122.027 23.2656 122.423 22.8916 122.688 22.429C123.278 21.0176 123.545 19.4922 123.47 17.9644V16.1786H120.229V13.6115H126.71V26.2239H124.476L124.14 23.3219C123.847 24.2945 123.237 25.1413 122.407 25.7278C121.577 26.3143 120.575 26.6068 119.559 26.5587C118.636 26.613 117.714 26.4374 116.875 26.0478C116.036 25.6582 115.308 25.0667 114.754 24.3264Z"/><path d="M133.861 17.2947L128.386 0.887451H131.738L135.649 13.165L139.448 0.887451H142.8L137.325 17.2947V26.2238H133.973V17.2947H133.861Z"/></g><defs><clipPath id="bclip0_92905_445"><rect transform="translate(0 0.441162)"/></clipPath></defs></symbol><symbol viewBox="0 0 29 22" id="icon-telegram" xmlns="http://www.w3.org/2000/svg"><path fill-rule="evenodd" clip-rule="evenodd" d="M23.9608 3.15291C24.1393 3.30222 24.2255 3.5349 24.1872 3.76448L21.5611 19.5214C21.5244 19.7411 21.3789 19.9273 21.1745 20.0159C20.97 20.1045 20.7346 20.0833 20.5493 19.9597L12.6708 14.7074C12.5177 14.6054 12.4145 14.4437 12.3862 14.2619C12.358 14.08 12.4074 13.8947 12.5223 13.751L15.133 10.4877L10.773 13.3944C10.577 13.525 10.326 13.5407 10.1152 13.4353L4.86293 10.8092C4.62769 10.6915 4.48535 10.4449 4.5012 10.1824C4.51705 9.91983 4.68804 9.6921 4.93573 9.60364L23.3188 3.03826C23.538 2.95998 23.7822 3.00359 23.9608 3.15291ZM6.82626 10.3228L10.3617 12.0905L17.9231 7.0495C18.1925 6.86994 18.5525 6.91349 18.7712 7.1521C18.99 7.3907 19.0022 7.75314 18.8 8.00591L13.995 14.0121L20.4328 18.3039L22.7083 4.65058L6.82626 10.3228Z"/></symbol><symbol viewBox="0 0 29 22" id="icon-vk" xmlns="http://www.w3.org/2000/svg"><g clip-path="url(#dclip0_92845_536)"><path d="M1.5 5.33876C1.5 4.48373 2.0151 4.02268 3.04531 3.95562L7.01515 3.98077C7.28158 3.98077 7.45921 4.10651 7.54802 4.35799C7.95655 5.61538 8.41392 6.70094 8.92014 7.61465C9.42637 8.52835 10.088 9.58038 10.9051 10.7707C10.9761 10.9216 11.0916 10.997 11.2514 10.997C11.3758 10.997 11.4735 10.9384 11.5445 10.821L11.6244 10.5444L11.6511 6.19379C11.6511 5.89201 11.5756 5.69083 11.4246 5.59024C11.2736 5.48965 10.9939 5.4142 10.5853 5.36391C10.2656 5.31361 10.1058 5.12919 10.1058 4.81065C10.1058 4.74359 10.1146 4.69329 10.1324 4.65976C10.5054 3.57002 11.5711 3.02515 13.3296 3.02515L14.8216 3C15.4966 3 16.0561 3.15927 16.5001 3.47781C16.9442 3.79635 17.1662 4.29931 17.1662 4.98669V10.6953C17.2906 10.7791 17.406 10.821 17.5126 10.821C17.779 10.821 18.0099 10.6701 18.2053 10.3683C20.1592 7.78649 21.216 6.05966 21.3759 5.18787C21.3759 5.1711 21.3936 5.12919 21.4291 5.06213C21.5535 4.81065 21.7577 4.5927 22.0419 4.40828C22.3261 4.22387 22.5748 4.09813 22.788 4.03107C22.859 3.99753 22.9389 3.98077 23.0277 3.98077H27.1574L27.4239 4.00592C27.7791 4.00592 28.0544 4.16519 28.2498 4.48373C28.3209 4.58432 28.3697 4.69329 28.3964 4.81065C28.423 4.92801 28.4408 5.04536 28.4496 5.16272C28.4585 5.28008 28.463 5.34714 28.463 5.36391V5.53994C28.3386 6.22732 28.0233 6.9608 27.5171 7.74038C27.0109 8.51997 26.367 9.36243 25.5855 10.2678C24.804 11.1731 24.3155 11.7682 24.1201 12.0533C23.9603 12.2544 23.8803 12.4389 23.8803 12.6065C23.8803 12.7406 23.9514 12.8915 24.0935 13.0592L27.9834 17.6864C28.1965 17.9546 28.3031 18.248 28.3031 18.5666C28.3031 18.9522 28.1432 19.2707 27.8235 19.5222C27.5038 19.7737 27.1219 19.9162 26.6779 19.9497L26.2249 19.9749H22.1752C22.1574 19.9749 22.1219 19.979 22.0686 19.9874C22.0153 19.9958 21.9798 20 21.962 20C21.5712 20 21.2071 19.8407 20.8696 19.5222C20.7453 19.3881 19.9105 18.3989 18.3652 16.5547C18.2764 16.4374 18.152 16.3284 17.9922 16.2278C17.9211 16.4961 17.8279 16.8817 17.7124 17.3846C17.597 17.8876 17.5126 18.248 17.4593 18.466L17.3794 18.8935C17.2018 19.4803 16.8287 19.8323 16.2604 19.9497L15.8874 19.9749H13.2763C11.8021 19.9749 10.3322 19.3378 8.86686 18.0636C7.40148 16.7894 6.08264 15.1423 4.91034 13.122C3.73803 11.1018 2.64566 8.75049 1.63322 6.06805C1.54441 5.8501 1.5 5.607 1.5 5.33876ZM17.5126 11.8521C17.1396 11.8521 16.8021 11.7557 16.5001 11.5629C16.1982 11.3701 16.0472 11.106 16.0472 10.7707V4.98669C16.0472 4.65138 15.9584 4.41248 15.7808 4.26997C15.6032 4.12747 15.2923 4.05621 14.8483 4.05621L13.3296 4.10651C12.5658 4.10651 11.9886 4.23225 11.5978 4.48373C12.3793 4.8358 12.7701 5.40582 12.7701 6.19379V10.6198C12.7346 11.039 12.5569 11.3868 12.2372 11.6635C11.9175 11.9401 11.5623 12.0784 11.1715 12.0784C10.6386 12.0784 10.2301 11.8353 9.94591 11.3491C8.56046 9.37081 7.53025 7.4931 6.85529 5.71598L6.6155 5.06213L3.07195 5.03698C2.84104 5.03698 2.71227 5.04956 2.68562 5.0747C2.65898 5.09985 2.64566 5.1711 2.64566 5.28846C2.64566 5.43935 2.66342 5.59862 2.69895 5.76627L3.25845 7.17456C4.75048 10.8126 6.37127 13.6795 8.12085 15.7751C9.87042 17.8708 11.5889 18.9186 13.2763 18.9186H15.9406C16.0472 18.9186 16.1271 18.8893 16.1804 18.8306C16.2337 18.7719 16.2781 18.6588 16.3136 18.4911L16.3669 18.2396L16.8732 16.0266C17.0152 15.7249 17.1396 15.5237 17.2462 15.4231C17.4415 15.2387 17.6725 15.1465 17.9389 15.1465C18.3652 15.1465 18.8003 15.3895 19.2444 15.8757L21.5091 18.5917C21.6512 18.8097 21.8022 18.9186 21.962 18.9186H26.3581C26.891 18.9186 27.1574 18.7929 27.1574 18.5414C27.1574 18.4576 27.1308 18.3738 27.0775 18.2899L23.2142 13.7382C22.9123 13.3861 22.7613 13.0089 22.7613 12.6065C22.7613 12.2041 22.9034 11.8185 23.1876 11.4497C23.4185 11.1144 23.867 10.557 24.5331 9.77737C25.1992 8.99778 25.7809 8.26849 26.2782 7.5895C26.7756 6.9105 27.1042 6.29438 27.264 5.74112L27.3439 5.4142C27.3262 5.38067 27.3173 5.32618 27.3173 5.25074C27.3173 5.1753 27.3084 5.11243 27.2907 5.06213H23.1077C22.8412 5.16272 22.6281 5.31361 22.4682 5.51479L22.3084 5.9926C21.8643 7.14941 20.7009 8.93491 18.8181 11.3491C18.4451 11.6844 18.0099 11.8521 17.5126 11.8521Z"/></g><defs><clipPath id="dclip0_92845_536"><rect transform="translate(0.5)"/></clipPath></defs></symbol><symbol viewBox="0 0 29 22" id="icon-youtube" xmlns="http://www.w3.org/2000/svg"><path d="M18.3509 10.7927L13.1145 7.30184C13.0159 7.23691 12.9016 7.19985 12.7837 7.19459C12.6657 7.18934 12.5486 7.21608 12.4446 7.27198C12.3406 7.32789 12.2537 7.41087 12.193 7.51215C12.1324 7.61343 12.1002 7.72924 12.1 7.84729V14.8291C12.1001 14.9481 12.1327 15.0648 12.1942 15.1667C12.2557 15.2686 12.3438 15.3518 12.4491 15.4073C12.5524 15.4631 12.6691 15.4895 12.7864 15.4837C12.9037 15.478 13.0172 15.4402 13.1145 15.3746L18.3509 11.8837C18.4409 11.8239 18.5148 11.7429 18.5658 11.6477C18.6169 11.5526 18.6436 11.4462 18.6436 11.3382C18.6436 11.2302 18.6169 11.1239 18.5658 11.0287C18.5148 10.9335 18.4409 10.8525 18.3509 10.7927ZM13.4091 13.6073V9.06911L16.8127 11.3382L13.4091 13.6073ZM25.8891 5.04366C25.7942 4.67547 25.6131 4.33511 25.3609 4.05061C25.1086 3.76611 24.7924 3.54561 24.4382 3.40729C20.7182 1.9782 14.7509 2.00002 14.5 2.00002C14.2491 2.00002 8.28182 1.9782 4.56182 3.40729C4.20764 3.54561 3.8914 3.76611 3.63914 4.05061C3.38689 4.33511 3.20584 4.67547 3.11091 5.04366C2.82727 6.11275 2.5 8.07638 2.5 11.3382C2.5 14.6 2.82727 16.5637 3.11091 17.6327C3.20584 18.0009 3.38689 18.3413 3.63914 18.6258C3.8914 18.9103 4.20764 19.1308 4.56182 19.2691C8.28182 20.6982 14.2491 20.6764 14.5 20.6764H14.5764C15.3291 20.6764 20.8927 20.6327 24.4382 19.2691C24.7924 19.1308 25.1086 18.9103 25.3609 18.6258C25.6131 18.3413 25.7942 18.0009 25.8891 17.6327C26.1727 16.5637 26.5 14.6 26.5 11.3382C26.5 8.07638 26.1727 6.11275 25.8891 5.04366ZM24.6236 17.3055C24.5807 17.472 24.499 17.6259 24.3853 17.7548C24.2715 17.8838 24.1289 17.984 23.9691 18.0473C20.4782 19.3891 14.5655 19.3673 14.5 19.3673C14.4345 19.3673 8.52182 19.3891 5.03091 18.0473C4.87107 17.984 4.72846 17.8838 4.61471 17.7548C4.50096 17.6259 4.41929 17.472 4.37636 17.3055C4.11455 16.3018 3.80909 14.4582 3.80909 11.3382C3.80909 8.2182 4.11455 6.37457 4.37636 5.37093C4.41929 5.20445 4.50096 5.05047 4.61471 4.92156C4.72846 4.79264 4.87107 4.69243 5.03091 4.62911C8.52182 3.28729 14.4345 3.30911 14.5 3.30911C14.5655 3.30911 20.4782 3.28729 23.9691 4.62911C24.1289 4.69243 24.2715 4.79264 24.3853 4.92156C24.499 5.05047 24.5807 5.20445 24.6236 5.37093C24.8855 6.37457 25.1909 8.2182 25.1909 11.3382C25.1909 14.4582 24.8855 16.3018 24.6236 17.3055Z"/></symbol></svg>

<svg xmlns="http://www.w3.org/2000/svg" xmlns:xlink="http://www.w3.org/1999/xlink"><defs><clipPath id="a"><path fill="#fff" transform="translate(0 .5)" d="M0 0h27v34H0z"/></clipPath><clipPath id="a"><path fill="#fff" transform="translate(0 .441)" d="M0 0h142.8v26.118H0z"/></clipPath><clipPath id="a"><path fill="#fff" transform="translate(.5)" d="M0 0h28v22H0z"/></clipPath></defs><symbol id="icon-copyright"><g clip-path="url(#a)"><path d="M13.643.516 13.5.5 0 1.907v24.606L13.5 34.5 27 26.513V1.907L13.643.516Zm11.591 25L13.5 32.456 1.766 25.515V15.43l11.685 6.916.02 1.253-8.017-4.743-.011 1.225 8.046 4.809.02 1.286-8.045-4.758-.01 1.226L13.5 27.45l8.124-4.833V17.41l3.62-2.15-.01 10.256Zm0-11.564-3.22 1.88-1.482.875-7.065-4.187-.011 1.225 6.04 3.573-.053.031-.13.076-.86.492-4.986-2.948-.011 1.225 3.936 2.328-.933.61-.021.012-2.971-1.742-.011 1.225 1.947 1.135-1.988 1.186-11.618-6.872 11.638-6.958 11.8 6.834Zm0-1.225L13.44 5.81 1.766 12.72V3.49L13.5 2.264 25.234 3.49v9.237Z" fill="#666"/></g></symbol><symbol id="icon-footer--logo"><g clip-path="url(#a)" fill="#111"><path d="M1.788 24.438A10.148 10.148 0 0 1 0 18.188V8.924a10.282 10.282 0 0 1 1.676-6.362C2.906 1.11 4.805.442 7.598.442c2.794 0 4.581.669 5.699 1.897a8.008 8.008 0 0 1 1.676 5.469v2.232H9.498V7.473c.044-.76-.07-1.52-.335-2.232a1.608 1.608 0 0 0-1.565-.893c-.782 0-1.34.223-1.564.78a7.203 7.203 0 0 0-.335 2.456v11.943a4.616 4.616 0 0 0 .447 2.344c.223.558.782.781 1.564.781s1.229-.223 1.452-.781a6.511 6.511 0 0 0 .336-2.344v-2.679h5.475v2.233a8.532 8.532 0 0 1-1.676 5.58c-1.118 1.34-3.017 2.01-5.699 2.01-2.682-.112-4.693-.782-5.81-2.233ZM21.565.776h6.37l4.692 25.448h-5.14l-.893-5.358h-3.688l-.894 5.358h-5.251L21.565.776Zm4.582 16.742-1.341-9.934-1.341 9.934h2.682ZM36.538 5.017H32.74V.776h13.297v4.13h-3.8v21.318h-5.698V5.017ZM56.204.776h9.833v2.679h-6.37v8.37h5.14v2.568h-5.14v9.375h6.37v2.567h-9.945V.776h.112ZM68.942.776H71.4l7.263 16.854V.776h2.905v25.448h-2.234L71.959 8.812v17.412h-3.017V.776ZM84.92.776h9.833v2.679h-6.369v8.37h5.14v2.568h-5.14v9.375h6.37v2.567H84.92V.776ZM97.659.776h5.139a8.947 8.947 0 0 1 5.699 1.562c1.229 1.005 1.788 2.79 1.788 5.135 0 3.237-1.006 5.246-3.129 5.915l3.576 12.724h-3.464l-3.352-11.942h-2.794v11.942h-3.575V.776h.112Zm4.916 10.938a4.884 4.884 0 0 0 3.24-.893c.671-.558 1.006-1.674 1.006-3.348a7.196 7.196 0 0 0-.335-2.456 2.842 2.842 0 0 0-1.229-1.34 5.104 5.104 0 0 0-2.459-.446h-1.564v8.371h1.341v.112ZM114.754 24.326a11.281 11.281 0 0 1-1.564-6.473V9.37c-.028-1.617.16-3.231.559-4.8a5.67 5.67 0 0 1 2.123-2.901 7.302 7.302 0 0 1 4.134-1.005c2.347 0 4.023.558 5.028 1.786a8.536 8.536 0 0 1 1.565 5.58v.894h-3.353v-.782a16.405 16.405 0 0 0-.223-2.79 2.232 2.232 0 0 0-.894-1.45 3.455 3.455 0 0 0-2.123-.559 3.356 3.356 0 0 0-2.235.67 2.523 2.523 0 0 0-.894 1.786 20.819 20.819 0 0 0-.223 3.013V18.3a10.133 10.133 0 0 0 .67 4.242c.447.892 1.341 1.227 2.682 1.227a2.707 2.707 0 0 0 2.682-1.339 10.27 10.27 0 0 0 .782-4.465V16.18h-3.241v-2.567h6.481v12.612h-2.234l-.336-2.902a4.555 4.555 0 0 1-4.581 3.237 5.592 5.592 0 0 1-4.805-2.233ZM133.861 17.295 128.386.887h3.352l3.911 12.278L139.448.887h3.352l-5.475 16.408v8.929h-3.352v-8.93h-.112Z"/></g></symbol><symbol id="icon-telegram"><path fill-rule="evenodd" clip-rule="evenodd" d="M23.96 3.153c.18.15.265.382.227.611l-2.626 15.757a.657.657 0 0 1-1.012.439l-7.878-5.253a.657.657 0 0 1-.149-.956l2.611-3.263-4.36 2.906a.657.657 0 0 1-.658.041L4.863 10.81a.657.657 0 0 1 .073-1.205l18.383-6.566a.657.657 0 0 1 .642.115Zm-17.134 7.17 3.536 1.768 7.561-5.041a.656.656 0 0 1 .877.956l-4.805 6.006 6.438 4.292L22.708 4.65 6.826 10.323Z" fill="#666"/></symbol><symbol id="icon-vk"><g clip-path="url(#a)"><path d="M1.5 5.339c0-.855.515-1.316 1.545-1.383l3.97.025a.52.52 0 0 1 .533.377c.409 1.257.866 2.343 1.372 3.257.506.913 1.168 1.965 1.985 3.156.071.15.187.226.346.226.125 0 .223-.059.293-.176l.08-.277.027-4.35c0-.302-.075-.503-.226-.604-.151-.1-.431-.176-.84-.226-.32-.05-.48-.235-.48-.553 0-.067.01-.118.027-.151.373-1.09 1.44-1.635 3.198-1.635L14.822 3c.675 0 1.234.16 1.678.478.444.318.666.821.666 1.509v5.708c.125.084.24.126.347.126.266 0 .497-.15.692-.453 1.954-2.582 3.011-4.308 3.17-5.18 0-.017.019-.059.054-.126.125-.251.329-.47.613-.654.284-.184.533-.31.746-.377a.554.554 0 0 1 .24-.05h4.13l.266.025c.355 0 .63.16.826.478.07.1.12.21.146.327.027.117.045.234.054.352.009.117.013.184.013.2v.177c-.124.687-.44 1.42-.946 2.2-.506.78-1.15 1.622-1.931 2.528-.782.905-1.27 1.5-1.466 1.785-.16.201-.24.386-.24.553 0 .135.071.286.213.453l3.89 4.627c.213.269.32.562.32.88 0 .386-.16.705-.48.956-.32.252-.701.394-1.145.428l-.453.025h-4.05a.855.855 0 0 0-.106.012.862.862 0 0 1-.107.013c-.39 0-.755-.16-1.092-.478-.125-.134-.96-1.123-2.505-2.967a1.387 1.387 0 0 0-.373-.327c-.07.268-.164.654-.28 1.157-.115.503-.2.863-.253 1.081l-.08.427c-.177.587-.55.94-1.119 1.057l-.373.025h-2.61c-1.475 0-2.945-.637-4.41-1.911-1.466-1.275-2.784-2.922-3.957-4.942-1.172-2.02-2.264-4.372-3.277-7.054a1.916 1.916 0 0 1-.133-.73Zm16.013 6.513c-.373 0-.71-.096-1.013-.29-.302-.192-.453-.456-.453-.791V4.987c0-.336-.089-.575-.266-.717-.178-.143-.489-.214-.933-.214l-1.518.05c-.764 0-1.341.126-1.732.378.781.352 1.172.922 1.172 1.71v4.426a1.5 1.5 0 0 1-.533 1.044 1.59 1.59 0 0 1-1.066.414c-.532 0-.94-.243-1.225-.729C8.56 9.371 7.53 7.493 6.856 5.716l-.24-.654-3.544-.025c-.231 0-.36.013-.386.038-.027.025-.04.096-.04.213 0 .151.017.31.053.478l.56 1.409c1.491 3.638 3.112 6.505 4.862 8.6 1.75 2.096 3.468 3.144 5.155 3.144h2.665c.106 0 .186-.03.24-.088.053-.06.097-.172.133-.34l.053-.251.506-2.213c.142-.302.267-.503.373-.604a.975.975 0 0 1 .693-.277c.426 0 .861.243 1.305.73l2.265 2.716c.142.218.293.327.453.327h4.396c.533 0 .8-.126.8-.378a.466.466 0 0 0-.08-.251l-3.864-4.552c-.302-.352-.453-.73-.453-1.131 0-.403.142-.788.427-1.157.23-.336.679-.893 1.345-1.673a37.63 37.63 0 0 0 1.745-2.187c.498-.68.826-1.296.986-1.849l.08-.327a.371.371 0 0 1-.027-.163.574.574 0 0 0-.026-.189h-4.183c-.267.1-.48.252-.64.453l-.16.478c-.444 1.156-1.607 2.942-3.49 5.356a1.892 1.892 0 0 1-1.305.503Z" fill="#666"/></g></symbol><symbol id="icon-youtube"><path d="m18.35 10.793-5.236-3.491a.655.655 0 0 0-1.014.545v6.982a.654.654 0 0 0 1.014.546l5.237-3.491a.655.655 0 0 0 0-1.091Zm-4.94 2.814V9.07l3.403 2.27-3.404 2.268Zm12.48-8.563a2.4 2.4 0 0 0-1.452-1.637C20.718 1.978 14.751 2 14.5 2c-.25 0-6.218-.022-9.938 1.407A2.4 2.4 0 0 0 3.11 5.044C2.827 6.113 2.5 8.076 2.5 11.338c0 3.262.327 5.226.61 6.295a2.4 2.4 0 0 0 1.452 1.636c3.72 1.43 9.687 1.407 9.938 1.407h.076c.753 0 6.317-.043 9.862-1.407a2.4 2.4 0 0 0 1.451-1.636c.284-1.07.611-3.033.611-6.295s-.327-5.225-.61-6.294Zm-1.266 12.261a1.09 1.09 0 0 1-.655.742c-3.49 1.342-9.404 1.32-9.469 1.32-.066 0-5.978.022-9.47-1.32a1.09 1.09 0 0 1-.654-.742c-.261-1.003-.567-2.847-.567-5.967 0-3.12.306-4.963.567-5.967a1.09 1.09 0 0 1 .655-.742c3.49-1.342 9.404-1.32 9.469-1.32.066 0 5.978-.022 9.47 1.32a1.092 1.092 0 0 1 .654.742c.262 1.004.567 2.847.567 5.967 0 3.12-.305 4.964-.567 5.967Z" fill="#666"/></symbol></svg>
